; generated by PrusaSlicer 2.3.0+win64 on 2021-03-17 at 15:07:02 UTC


;
;

;
;
; 

; external perimeters extrusion width = 0.38mm
; perimeters extrusion width = 0.38mm
; infill extrusion width = 0.45mm
; solid infill extrusion width = 0.45mm
; top infill extrusion width = 0.44mm
; support material extrusion width = 0.40mm
; first layer extrusion width = 0.45mm

M73 P0 R2
M107
;TYPE:Custom
M104 S0
M190 S0
print_start EXTRUDER=245 BED=110
G21 ; set units to millimeters
G90 ; use absolute coordinates
M83 ; use relative distances for extrusion
;Filament gcode
;LAYER_CHANGE
;Z:0.2
;HEIGHT:0.2
G1 Z0.200 F18000.000
;AFTER_LAYER_CHANGE
;
;
;
;
;
;
;
;
;0.2
G10 ; retract
G1 Z0.600
G1 X125.802 Y130.057
G1 Z0.200
G11 ; unretract
M204 S2000
;TYPE:Skirt
;WIDTH:0.45
G1 F1500.000
G1 X126.614 Y128.777 E0.04566
G1 X127.300 Y127.947 E0.03245
G1 X128.061 Y127.196 E0.03221
G1 X128.896 Y126.527 E0.03221
G1 X129.801 Y125.944 E0.03245
G1 X130.762 Y125.456 E0.03245
G1 X131.760 Y125.073 E0.03221
G1 X132.800 Y124.792 E0.03245
G1 X133.856 Y124.620 E0.03221
G1 X134.979 Y124.558 E0.03389
M73 P1 R2
G1 X165.008 Y124.558 E0.90463
G1 X166.811 Y124.716 E0.05453
G1 X168.567 Y125.186 E0.05477
M73 P2 R2
G1 X170.215 Y125.953 E0.05477
G1 X171.705 Y126.995 E0.05477
G1 X172.992 Y128.279 E0.05477
G1 X174.032 Y129.760 E0.05453
G1 X174.804 Y131.406 E0.05477
G1 X175.278 Y133.153 E0.05453
G1 X175.442 Y134.955 E0.05453
G1 X175.430 Y165.519 E0.92074
M73 P3 R2
G1 X175.240 Y167.046 E0.04638
G1 X174.831 Y168.522 E0.04614
G1 X174.210 Y169.922 E0.04614
G1 X173.386 Y171.223 E0.04638
G1 X172.646 Y172.112 E0.03486
G1 X171.818 Y172.909 E0.03462
G1 X170.908 Y173.610 E0.03462
G1 X169.919 Y174.211 E0.03486
G1 X168.870 Y174.699 E0.03486
G1 X167.781 Y175.065 E0.03462
G1 X166.651 Y175.311 E0.03486
G1 X165.508 Y175.430 E0.03462
G1 X134.418 Y175.426 E0.93661
M73 P4 R2
G1 X132.907 Y175.231 E0.04590
G1 X131.448 Y174.820 E0.04566
G1 X130.057 Y174.198 E0.04590
G1 X128.777 Y173.386 E0.04566
G1 X127.888 Y172.646 E0.03486
G1 X127.091 Y171.818 E0.03462
G1 X126.390 Y170.908 E0.03462
G1 X125.789 Y169.919 E0.03486
M73 P5 R2
G1 X125.301 Y168.870 E0.03486
G1 X124.935 Y167.781 E0.03462
G1 X124.689 Y166.651 E0.03486
G1 X124.570 Y165.508 E0.03462
G1 X124.574 Y134.418 E0.93661
M73 P6 R2
G1 X124.769 Y132.907 E0.04590
G1 X125.180 Y131.448 E0.04566
G1 X125.777 Y130.112 E0.04409
M204 S3000
G1 X126.149 Y130.279 F18000.000
M204 S2000
G1 F1500.000
G1 X126.971 Y128.980 E0.04632
G1 X127.632 Y128.186 E0.03111
G1 X128.365 Y127.471 E0.03087
G1 X129.174 Y126.829 E0.03111
G1 X130.045 Y126.273 E0.03111
G1 X130.968 Y125.810 E0.03111
G1 X131.934 Y125.445 E0.03111
G1 X132.932 Y125.180 E0.03111
G1 X133.944 Y125.020 E0.03087
G1 X134.983 Y124.965 E0.03134
G1 X165.008 Y124.965 E0.90451
M73 P7 R2
G1 X166.752 Y125.119 E0.05275
G1 X168.443 Y125.574 E0.05275
G1 X170.029 Y126.315 E0.05275
G1 X171.461 Y127.322 E0.05275
G1 X172.698 Y128.561 E0.05275
G1 X173.700 Y129.997 E0.05275
G1 X174.437 Y131.585 E0.05275
G1 X174.886 Y133.278 E0.05275
G1 X175.035 Y134.959 E0.05087
G1 X175.023 Y165.493 E0.91983
M73 P8 R2
G1 X174.839 Y166.975 E0.04499
G1 X174.440 Y168.406 E0.04476
G1 X173.830 Y169.769 E0.04499
G1 X173.029 Y171.020 E0.04476
G1 X172.320 Y171.865 E0.03323
M73 P9 R2
G1 X171.522 Y172.627 E0.03323
G1 X170.639 Y173.301 E0.03346
G1 X169.694 Y173.870 E0.03323
G1 X168.685 Y174.334 E0.03346
G1 X167.639 Y174.682 E0.03323
G1 X166.553 Y174.915 E0.03346
G1 X165.455 Y175.025 E0.03323
G1 X134.452 Y175.020 E0.93397
M73 P10 R2
G1 X132.987 Y174.831 E0.04452
G1 X131.565 Y174.429 E0.04452
G1 X130.224 Y173.826 E0.04429
G1 X128.980 Y173.029 E0.04452
G1 X128.135 Y172.320 E0.03323
G1 X127.373 Y171.522 E0.03323
G1 X126.699 Y170.639 E0.03346
G1 X126.130 Y169.694 E0.03323
G1 X125.666 Y168.685 E0.03346
G1 X125.318 Y167.639 E0.03323
G1 X125.085 Y166.553 E0.03346
G1 X124.975 Y165.455 E0.03323
G1 X124.980 Y134.452 E0.93397
M73 P11 R2
G1 X125.169 Y132.987 E0.04452
G1 X125.571 Y131.565 E0.04452
G1 X126.125 Y130.334 E0.04066
M204 S3000
G1 X126.496 Y130.502 F18000.000
M204 S2000
G1 F1500.000
G1 X126.547 Y130.391 E0.00368
G1 X127.324 Y129.188 E0.04315
G1 X127.960 Y128.431 E0.02978
G1 X128.671 Y127.744 E0.02978
G1 X129.448 Y127.133 E0.02978
G1 X130.284 Y126.606 E0.02978
G1 X131.169 Y126.166 E0.02978
G1 X132.095 Y125.820 E0.02978
G1 X133.052 Y125.571 E0.02978
G1 X134.029 Y125.421 E0.02978
G1 X165.008 Y125.372 E0.93325
M73 P12 R2
G1 X166.685 Y125.520 E0.05074
G1 X168.312 Y125.959 E0.05074
G1 X169.836 Y126.675 E0.05074
M73 P13 R2
G1 X171.219 Y127.650 E0.05097
G1 X172.405 Y128.846 E0.05074
G1 X173.368 Y130.237 E0.05097
G1 X174.070 Y131.768 E0.05074
G1 X174.494 Y133.398 E0.05074
G1 X174.628 Y134.962 E0.04729
G1 X174.617 Y165.467 E0.91898
M73 P14 R2
G1 X174.440 Y166.896 E0.04338
G1 X174.049 Y168.290 E0.04361
G1 X173.457 Y169.603 E0.04338
G1 X172.676 Y170.812 E0.04338
G1 X171.992 Y171.619 E0.03185
G1 X171.224 Y172.346 E0.03185
G1 X170.381 Y172.984 E0.03185
G1 X169.474 Y173.526 E0.03185
G1 X168.512 Y173.965 E0.03185
G1 X167.500 Y174.298 E0.03208
G1 X166.465 Y174.516 E0.03185
G1 X165.413 Y174.619 E0.03185
G1 X134.487 Y174.615 E0.93167
M73 P15 R2
G1 X133.066 Y174.432 E0.04315
G1 X131.688 Y174.041 E0.04315
G1 X130.391 Y173.453 E0.04292
G1 X129.188 Y172.676 E0.04315
G1 X128.381 Y171.992 E0.03185
G1 X127.654 Y171.224 E0.03185
G1 X127.016 Y170.381 E0.03185
G1 X126.474 Y169.474 E0.03185
G1 X126.035 Y168.512 E0.03185
G1 X125.702 Y167.500 E0.03208
G1 X125.484 Y166.465 E0.03185
G1 X125.381 Y165.413 E0.03185
G1 X125.385 Y134.487 E0.93167
M73 P16 R2
G1 X125.568 Y133.066 E0.04315
G1 X125.959 Y131.688 E0.04315
G1 X126.472 Y130.557 E0.03743
M204 S3000
G10 ; retract
M73 P17 R2
G1 Z0.600 F18000.000
G1 X128.972 Y128.022
G1 Z0.200
G11 ; unretract
M204 S2000
G1 F1500.000
G1 X130.519 Y126.941 E0.05685
G1 X132.261 Y126.195 E0.05708
G1 X134.111 Y125.822 E0.05685
G1 X165.008 Y125.779 E0.93078
M73 P18 R2
G1 X166.620 Y125.922 E0.04875
G1 X168.189 Y126.348 E0.04898
G1 X169.659 Y127.042 E0.04898
G1 X170.978 Y127.979 E0.04875
G1 X172.114 Y129.132 E0.04875
G1 X173.030 Y130.467 E0.04875
G1 X173.699 Y131.940 E0.04875
G1 X174.101 Y133.515 E0.04898
G1 X174.221 Y134.972 E0.04402
G1 X174.211 Y165.442 E0.91794
M73 P19 R2
G1 X174.039 Y166.826 E0.04200
G1 X173.660 Y168.168 E0.04200
G1 X173.084 Y169.437 E0.04200
G1 X172.322 Y170.605 E0.04200
G1 X171.664 Y171.374 E0.03050
G1 X170.931 Y172.061 E0.03027
G1 X170.121 Y172.668 E0.03050
G1 X169.250 Y173.184 E0.03050
G1 X168.327 Y173.600 E0.03050
G1 X167.365 Y173.913 E0.03050
G1 X166.373 Y174.118 E0.03050
G1 X165.366 Y174.214 E0.03050
G1 X134.520 Y174.209 E0.92923
M73 P20 R2
G1 X133.152 Y174.034 E0.04155
G1 X131.818 Y173.655 E0.04177
G1 X130.557 Y173.080 E0.04177
M73 P21 R2
G1 X129.395 Y172.322 E0.04177
G1 X128.626 Y171.664 E0.03050
G1 X127.939 Y170.931 E0.03027
G1 X127.332 Y170.121 E0.03050
G1 X126.816 Y169.250 E0.03050
G1 X126.400 Y168.327 E0.03050
G1 X126.087 Y167.365 E0.03050
G1 X125.882 Y166.373 E0.03050
G1 X125.786 Y165.366 E0.03050
G1 X125.791 Y134.520 E0.92923
M73 P22 R2
G1 X125.966 Y133.152 E0.04155
G1 X126.345 Y131.818 E0.04177
G1 X126.920 Y130.557 E0.04177
G1 X127.678 Y129.395 E0.04177
G1 X128.931 Y128.066 E0.05505
M204 S3000
G1 X129.227 Y128.348 F18000.000
M204 S2000
G1 F1500.000
G1 X129.275 Y128.299 E0.00206
G1 X130.756 Y127.275 E0.05426
G1 X132.422 Y126.571 E0.05448
G1 X134.190 Y126.223 E0.05426
G1 X165.007 Y126.186 E0.92840
M73 P23 R2
G1 X166.561 Y126.325 E0.04700
G1 X168.060 Y126.734 E0.04678
G1 X169.469 Y127.403 E0.04700
G1 X170.733 Y128.305 E0.04678
G1 X171.824 Y129.421 E0.04700
G1 X172.697 Y130.705 E0.04678
G1 X173.331 Y132.122 E0.04678
G1 X173.707 Y133.629 E0.04678
G1 X173.814 Y134.973 E0.04062
G1 X173.804 Y165.418 E0.91716
M73 P24 R2
G1 X173.638 Y166.756 E0.04062
G1 X173.271 Y168.046 E0.04040
G1 X172.710 Y169.272 E0.04062
G1 X171.973 Y170.392 E0.04040
M73 P25 R2
G1 X171.340 Y171.124 E0.02915
G1 X170.636 Y171.777 E0.02893
G1 X169.859 Y172.354 E0.02915
G1 X169.030 Y172.839 E0.02893
G1 X168.153 Y173.231 E0.02893
G1 X167.232 Y173.527 E0.02915
G1 X166.291 Y173.719 E0.02893
G1 X165.327 Y173.808 E0.02915
G1 X134.545 Y173.802 E0.92732
M73 P26 R2
G1 X133.223 Y173.633 E0.04018
G1 X131.940 Y173.266 E0.04018
G1 X130.722 Y172.706 E0.04040
G1 X129.608 Y171.973 E0.04018
G1 X128.876 Y171.340 E0.02915
G1 X128.223 Y170.636 E0.02893
G1 X127.646 Y169.859 E0.02915
G1 X127.161 Y169.030 E0.02893
G1 X126.769 Y168.153 E0.02893
G1 X126.473 Y167.232 E0.02915
G1 X126.281 Y166.291 E0.02893
G1 X126.192 Y165.327 E0.02915
G1 X126.198 Y134.545 E0.92732
M73 P27 R2
G1 X126.367 Y133.223 E0.04018
G1 X126.734 Y131.940 E0.04018
G1 X127.294 Y130.722 E0.04040
G1 X128.027 Y129.608 E0.04018
G1 X129.186 Y128.392 E0.05062
M204 S3000
G1 X129.480 Y128.674 F18000.000
M204 S2000
G1 F1500.000
G1 X129.562 Y128.588 E0.00357
G1 X130.984 Y127.614 E0.05192
G1 X132.574 Y126.951 E0.05192
G1 X134.259 Y126.626 E0.05170
G1 X165.007 Y126.593 E0.92629
M73 P28 R2
G1 X166.489 Y126.726 E0.04483
G1 X167.925 Y127.118 E0.04483
G1 X169.268 Y127.757 E0.04483
G1 X170.484 Y128.628 E0.04504
G1 X171.521 Y129.694 E0.04483
G1 X172.355 Y130.927 E0.04483
M73 P29 R2
G1 X172.958 Y132.288 E0.04483
G1 X173.312 Y133.740 E0.04504
G1 X173.407 Y134.975 E0.03730
G1 X173.398 Y165.387 E0.91618
M73 P30 R2
G1 X173.239 Y166.672 E0.03902
G1 X172.884 Y167.918 E0.03902
G1 X172.343 Y169.094 E0.03902
G1 X171.627 Y170.174 E0.03902
G1 X171.019 Y170.869 E0.02782
G1 X170.344 Y171.490 E0.02761
G1 X168.813 Y172.492 E0.05513
G1 X167.102 Y173.140 E0.05513
G1 X165.290 Y173.402 E0.05513
G1 X134.578 Y173.396 E0.92524
M73 P31 R2
G1 X133.300 Y173.233 E0.03881
G1 X132.062 Y172.877 E0.03881
G1 X130.893 Y172.336 E0.03881
G1 X129.826 Y171.627 E0.03859
G1 X129.131 Y171.019 E0.02782
G1 X128.510 Y170.344 E0.02761
G1 X127.508 Y168.813 E0.05513
G1 X126.860 Y167.102 E0.05513
G1 X126.598 Y165.290 E0.05513
G1 X126.604 Y134.578 E0.92524
M73 P32 R2
G1 X126.767 Y133.300 E0.03881
G1 X127.123 Y132.062 E0.03881
G1 X127.664 Y130.893 E0.03881
G1 X128.373 Y129.826 E0.03859
G1 X129.439 Y128.717 E0.04632
M204 S3000
G10 ; retract
G1 Z0.600 F18000.000
G1 X136.446 Y136.446
G1 Z0.200
G11 ; unretract
M204 S2000
;TYPE:Perimeter
M73 P33 R2
G1 F1500.000
G1 X163.554 Y136.446 E0.81663
M73 P33 R1
G1 X163.554 Y163.554 E0.81663
M73 P34 R1
G1 X136.446 Y163.554 E0.81663
M73 P35 R1
G1 X136.446 Y136.506 E0.81482
M204 S3000
M73 P36 R1
G1 X136.039 Y136.039 F18000.000
M204 S2000
G1 F1500.000
G1 X163.961 Y136.039 E0.84115
M73 P37 R1
G1 X163.961 Y163.961 E0.84115
G1 X136.039 Y163.961 E0.84115
M73 P38 R1
G1 X136.039 Y136.099 E0.83935
M204 S3000
M73 P39 R1
G1 X135.632 Y135.632 F18000.000
M204 S2000
G1 F1500.000
G1 X164.368 Y135.632 E0.86568
M73 P40 R1
G1 X164.368 Y164.368 E0.86568
M73 P41 R1
G1 X135.632 Y164.368 E0.86568
M73 P42 R1
G1 X135.632 Y135.692 E0.86387
M204 S3000
M73 P43 R1
G1 X135.225 Y135.225 F18000.000
M204 S2000
;TYPE:External perimeter
G1 F1500.000
G1 X164.775 Y135.225 E0.89021
G1 X164.775 Y164.775 E0.89021
M73 P44 R1
G1 X135.225 Y164.775 E0.89021
M73 P45 R1
G1 X135.225 Y135.285 E0.88840
M204 S3000
M73 P46 R1
G1 X135.611 Y135.329 F18000.000
G10 ; retract
G1 Z0.600
G1 X162.604 Y136.568
G1 Z0.200
G11 ; unretract
M204 S2000
;TYPE:Solid infill
;WIDTH:0.452038
G1 F1500.000
G1 X163.248 Y137.212 E0.02758
G1 X163.248 Y137.791 E0.01752
G1 X162.209 Y136.752 E0.04451
G1 X161.630 Y136.752 E0.01752
G1 X163.248 Y138.370 E0.06928
M73 P47 R1
G1 X163.248 Y138.948 E0.01752
G1 X161.052 Y136.752 E0.09405
G1 X160.473 Y136.752 E0.01752
G1 X163.248 Y139.527 E0.11883
G1 X163.248 Y140.105 E0.01752
G1 X159.895 Y136.752 E0.14360
G1 X159.316 Y136.752 E0.01752
G1 X163.248 Y140.684 E0.16837
G1 X163.248 Y141.262 E0.01752
G1 X158.738 Y136.752 E0.19314
G1 X158.159 Y136.752 E0.01752
G1 X163.248 Y141.841 E0.21792
M73 P48 R1
G1 X163.248 Y142.420 E0.01752
G1 X157.580 Y136.752 E0.24269
G1 X157.002 Y136.752 E0.01752
G1 X163.248 Y142.998 E0.26746
G1 X163.248 Y143.577 E0.01752
G1 X156.423 Y136.752 E0.29224
G1 X155.845 Y136.752 E0.01752
M73 P49 R1
G1 X163.248 Y144.155 E0.31701
G1 X163.248 Y144.734 E0.01752
G1 X155.266 Y136.752 E0.34178
G1 X154.687 Y136.752 E0.01752
G1 X163.248 Y145.313 E0.36656
M73 P50 R1
G1 X163.248 Y145.891 E0.01752
G1 X154.109 Y136.752 E0.39133
G1 X153.530 Y136.752 E0.01752
G1 X163.248 Y146.470 E0.41610
G1 X163.248 Y147.048 E0.01752
G1 X152.952 Y136.752 E0.44088
M73 P51 R1
G1 X152.373 Y136.752 E0.01752
G1 X163.248 Y147.627 E0.46565
G1 X163.248 Y148.205 E0.01752
G1 X151.795 Y136.752 E0.49042
M73 P52 R1
G1 X151.216 Y136.752 E0.01752
G1 X163.248 Y148.784 E0.51520
G1 X163.248 Y149.363 E0.01752
G1 X150.637 Y136.752 E0.53997
M73 P53 R1
G1 X150.059 Y136.752 E0.01752
G1 X163.248 Y149.941 E0.56474
G1 X163.248 Y150.520 E0.01752
M73 P54 R1
G1 X149.480 Y136.752 E0.58952
G1 X148.902 Y136.752 E0.01752
G1 X163.248 Y151.098 E0.61429
M73 P55 R1
G1 X163.248 Y151.677 E0.01752
G1 X148.323 Y136.752 E0.63906
G1 X147.745 Y136.752 E0.01752
G1 X163.248 Y152.255 E0.66383
M73 P56 R1
G1 X163.248 Y152.834 E0.01752
G1 X147.166 Y136.752 E0.68861
M73 P57 R1
G1 X146.587 Y136.752 E0.01752
G1 X163.248 Y153.413 E0.71338
G1 X163.248 Y153.991 E0.01752
G1 X146.009 Y136.752 E0.73815
M73 P58 R1
G1 X145.430 Y136.752 E0.01752
G1 X163.248 Y154.570 E0.76293
M73 P59 R1
G1 X163.248 Y155.148 E0.01752
G1 X144.852 Y136.752 E0.78770
M73 P60 R1
G1 X144.273 Y136.752 E0.01752
G1 X163.248 Y155.727 E0.81247
M73 P61 R1
G1 X163.248 Y156.306 E0.01752
G1 X143.694 Y136.752 E0.83725
G1 X143.116 Y136.752 E0.01752
G1 X163.248 Y156.884 E0.86202
M73 P62 R1
G1 X163.248 Y157.463 E0.01752
G1 X142.537 Y136.752 E0.88679
M73 P63 R1
G1 X141.959 Y136.752 E0.01752
G1 X163.248 Y158.041 E0.91157
M73 P64 R1
G1 X163.248 Y158.620 E0.01752
G1 X141.380 Y136.752 E0.93634
M73 P65 R1
G1 X140.802 Y136.752 E0.01752
G1 X163.248 Y159.198 E0.96111
M73 P66 R1
G1 X163.248 Y159.777 E0.01752
G1 X140.223 Y136.752 E0.98589
M73 P67 R1
G1 X139.644 Y136.752 E0.01752
G1 X163.248 Y160.356 E1.01066
M73 P68 R1
G1 X163.248 Y160.934 E0.01752
G1 X139.066 Y136.752 E1.03543
M73 P69 R1
G1 X138.487 Y136.752 E0.01752
G1 X163.248 Y161.513 E1.06021
M73 P70 R1
G1 X163.248 Y162.091 E0.01752
G1 X137.909 Y136.752 E1.08498
M73 P71 R1
G1 X137.330 Y136.752 E0.01752
G1 X163.248 Y162.670 E1.10975
M73 P72 R1
G1 X163.248 Y163.248 E0.01752
G1 X136.752 Y136.752 E1.13452
M73 P73 R1
G1 X136.752 Y137.330 E0.01752
G1 X162.670 Y163.248 E1.10975
M73 P75 R1
G1 X162.091 Y163.248 E0.01752
G1 X136.752 Y137.909 E1.08497
M73 P76 R1
G1 X136.752 Y138.487 E0.01752
G1 X161.513 Y163.248 E1.06020
M73 P77 R1
G1 X160.934 Y163.248 E0.01752
G1 X136.752 Y139.066 E1.03543
M73 P78 R0
G1 X136.752 Y139.644 E0.01752
G1 X160.356 Y163.248 E1.01066
M73 P79 R0
G1 X159.777 Y163.248 E0.01752
G1 X136.752 Y140.223 E0.98588
M73 P80 R0
G1 X136.752 Y140.802 E0.01752
G1 X159.198 Y163.248 E0.96111
M73 P81 R0
G1 X158.620 Y163.248 E0.01752
G1 X136.752 Y141.380 E0.93634
M73 P82 R0
G1 X136.752 Y141.959 E0.01752
G1 X158.041 Y163.248 E0.91156
M73 P83 R0
G1 X157.463 Y163.248 E0.01752
G1 X136.752 Y142.537 E0.88679
G1 X136.752 Y143.116 E0.01752
M73 P84 R0
G1 X156.884 Y163.248 E0.86202
G1 X156.305 Y163.248 E0.01752
G1 X136.752 Y143.695 E0.83724
M73 P85 R0
G1 X136.752 Y144.273 E0.01752
G1 X155.727 Y163.248 E0.81247
M73 P86 R0
G1 X155.148 Y163.248 E0.01752
G1 X136.752 Y144.852 E0.78770
M73 P87 R0
G1 X136.752 Y145.430 E0.01752
G1 X154.570 Y163.248 E0.76292
M73 P88 R0
G1 X153.991 Y163.248 E0.01752
G1 X136.752 Y146.009 E0.73815
G1 X136.752 Y146.587 E0.01752
G1 X153.413 Y163.248 E0.71338
M73 P89 R0
G1 X152.834 Y163.248 E0.01752
G1 X136.752 Y147.166 E0.68860
M73 P90 R0
G1 X136.752 Y147.745 E0.01752
G1 X152.255 Y163.248 E0.66383
G1 X151.677 Y163.248 E0.01752
G1 X136.752 Y148.323 E0.63906
M73 P91 R0
G1 X136.752 Y148.902 E0.01752
G1 X151.098 Y163.248 E0.61428
M73 P92 R0
G1 X150.520 Y163.248 E0.01752
G1 X136.752 Y149.480 E0.58951
G1 X136.752 Y150.059 E0.01752
G1 X149.941 Y163.248 E0.56474
M73 P93 R0
G1 X149.362 Y163.248 E0.01752
G1 X136.752 Y150.638 E0.53997
G1 X136.752 Y151.216 E0.01752
G1 X148.784 Y163.248 E0.51519
M73 P94 R0
G1 X148.205 Y163.248 E0.01752
G1 X136.752 Y151.795 E0.49042
G1 X136.752 Y152.373 E0.01752
G1 X147.627 Y163.248 E0.46565
M73 P95 R0
